src/components/Icon/assets/channel-left-filled.svg

<svg width="24" height="24" viewBox="0 0 24 24" fill="none" xmlns="http://www.w3.org/2000/svg">
<path fill-rule="evenodd" clip-rule="evenodd" d="M13.1984 14.0655C12.3534 14.0655 12.0004 13.4555 12.0004 11.9605C12.0004 10.4655 12.3534 9.8555 13.1984 9.8555C14.0434 9.8555 14.3964 10.4655 14.3964 11.9605C14.3964 13.4555 14.0434 14.0655 13.1984 14.0655V14.0655ZM6.77139 14.0655C5.92639 14.0655 5.57339 13.4555 5.57339 11.9605C5.57339 10.4655 5.92639 9.8555 6.77139 9.8555C7.61639 9.8555 7.96939 10.4655 7.96939 11.9605C7.96939 13.4555 7.61639 14.0655 6.77139 14.0655V14.0655ZM20.7294 18.1885C20.5644 17.6915 20.5824 17.1425 20.8284 16.6805C21.8664 14.7325 22.2874 12.4065 21.7934 9.95249C20.9884 5.95149 17.6994 2.78749 13.6704 2.13549C6.84339 1.03049 1.02939 6.84549 2.13539 13.6725C2.78839 17.7005 5.95239 20.9895 9.95339 21.7945C12.4084 22.2875 14.7354 21.8665 16.6844 20.8265C17.1434 20.5815 17.6864 20.5625 18.1804 20.7265C18.7174 20.9055 19.4354 21.1455 20.1034 21.3675C20.8854 21.6285 21.6284 20.8845 21.3674 20.1025L20.7294 18.1885Z" fill="#65676A"/>
</svg>

<svg xmlns="http://www.w3.org/2000/svg" width="24" height="24" viewBox="0 0 24 24">
    <path fill="#65676A" fill-rule="evenodd" d="M13.198 14.066c-.845 0-1.198-.61-1.198-2.106 0-1.495.353-2.105 1.198-2.105s1.198.61 1.198 2.105-.353 2.105-1.198 2.105zm-6.427 0c-.845 0-1.198-.61-1.198-2.106 0-1.495.353-2.105 1.198-2.105s1.198.61 1.198 2.105-.353 2.105-1.198 2.105zm13.958 4.123c-.165-.497-.147-1.047.1-1.509 1.037-1.947 1.458-4.274.964-6.727-.805-4.001-4.094-7.165-8.123-7.817C6.843 1.03 1.03 6.846 2.135 13.673c.653 4.028 3.817 7.316 7.818 8.121 2.455.494 4.782.072 6.731-.968.46-.245 1.002-.264 1.496-.1l1.923.642c.782.26 1.525-.483 1.264-1.265l-.638-1.915z"/>
</svg>
